X:35031
T:Mrs. Stewart's Strathspey
T:Argyll Strathspey
R:STRATHSPEY
C:W.Marshall
S:8 X 32  1,2,3,4,  2,3,4,1
B:RSCDS 35-3
Z:1997 by John Chambers <jc@trillian.mit.edu>
M:C
L:1/8
Q:126
%--------------------
K:D
|:A |  "D" D<DF>D d/c/B/A/ F2 | "Em" BEEF "A" G>A B<d | "D" D<D F>A d/c/B/A/ FD | "D" Ad"A"ce "D" dD D:|!
F| "D"{c}d>A F>A "Bm"d/c/B/A/ {c}d2 | "Em"e<E E>F "A"G>A Bc \
|  "D"{c}d>A F>A d/e/f/g/ "A7"ag | "D"fdAG FDFA |!
|  "D"{c}d>A F>A d/c/B/A/ {c}d2 | "Em"e<E E>F "A"G>A Bc \
|  "Bm"dfec dBAF | "G" GB"A"Ac "D"dD D2 |]
